X:1
T:STRIDE LA VAMPA
T:STRIDE LA VAMPA
T:(FORTH STALKS THE VAMPIRE)
T:"IL TROVATOREY" by G. VERDI
T:Trans'd and Arr'd by H. MILLARD
T:Entered according to Act of Congress, in the year 1873, by M. GRAY, in the Office of the Librarians of Congress, at Washington.
T:Entered according to Act of Congress, in the year 1873, by M. GRAY, in the Office of the Librarians of Congress, at Washington.
T:Entered according to Act of Congress, in the year 1873, by M. GRAY, in the Office of the Librarians of Congress, at Washington.
T:Entered according to Act of Congress, in the year 1873, by M. GRAY, in the Office of the Librarians of Congress, at Washington.
T:Entered according to Act of Congress, in the year 1873, by M. GRAY, in the Office of the Librarians of Congress, at Washington.
C:"IL TROVATOREY" BY G. VERDI
Z:Trans'd and Arr'd by H. MILLARD
Z:Entered according to Act of Congress, in the year 1873, by M. GRAY, in the Office of the Librarians of Congress, at Washington.
%%score 1 { 2 | 3 }
L:1/8
Q:1/4=116
M:3/8
K:G
V:1 treble nm="Voice"
V:2 treble nm="Piano"
V:3 bass 
V:1
"^Allegretto" z3 | z3 | !>!B3 | !>!B2 B | TB^A/>B/d/>c/ | B3 | !trill(!TA^G/>A/c/>B/ | A2 A | %8
w: ||Forth|stalks the|vam- * * * *|pire,|The- * * * *|crowd so|
 TGF/>G/A/>G/ | F2 z | !>!B3 | !>!B2 B | TB^A/>B/d/>c/ | G3 | TA^G/>A/d/>c/ | A2 A | TGG/>A/F/>G/ | %17
w: reck- * * * less-|ly,|Runs|to that|fierce _ _ _ _|fire,|Joy- * * * *|ful their|glan- * * * *|
 E2 z |!f! (!>!e3 | e)d/>c/B/>A/ | (B2 c) | B z z |!pp! (A3 | A)^G/>A/B/>c/ | G2 E | G2 z | %26
w: ces!|Wild-|* cries * * of|mirth un-|told|Are|_ heard now * in|echo- ing|peal,|
!f! (e3 | e)d/>c/B/>A/ | (B2 c) | B2 z | (G3 | G)F/>E/^D/>E/ | F3 | B,3 | !>!B3 | !>!B2 B | %36
w: Hem'd,|_ in by * *|guards, so|bold,|Lo!|_ she * ad- *|van-|ces|As|flames of|
 TB^A/>B/d/>c/ | !>!G3 | TA^G/>A/c/>B/ | A2 A | TGF/>G/A/>G/ | F2 z | (B3 | !>!e2) e | !>!e2 e | %45
w: Lu- * * * rid|light|Dis- * * * *|close the|dark _ _ _ of|night,|Each|smiles with|grim de-|
!<(! =f/>e/!<)!!>(!d/>c/!>)!B/>A/ | G/>F/E z/ E/ | F/>E/^D z/ D/ | (!trill(!TB3 | (B3) | (B3) | %51
w: light, _ _ _ _ whilst|fires * * are|flam ing, * and|blaz-|||
 (B3) | !trill)!B)!<(!^c/>^d/e/>=f/!<)! | !>!g2 f | e2 z | z3 | z3 | z3 | z3 | z3 | z3 | z3 | %62
w: |ing with * * *|fu- ry|bright.||||||||
 !fermata!z3 | !fermata!z3 | !>!B3 | !>!B2 B | TB^A/>B/d/>c/ | B3 | TA^G/>A/c/>B/ | A2 A | %70
w: ||Forth|stalks the|vam- * * * *|pire,|Now _ _ _ _|comes the|
 TGF/>G/A/>G/ | F3 | !>!B3 | !>!B2 B | TB^A/>B/d/>c/ | B3 | TA^G/>A/c/>B/ | A2 A | TGG/>A/F/>G/ | %79
w: vic- * * * tim|wild!|In|robes of|black _ _ _ at|tire|That _ _ _ _|fright en-|han- * * * *|
 E2 z |!f! (!>!e3 | e)d/>c/B/>A/ | B2 c | B2 z |!pp! (A3 | A)^G/>A/B/>c/ | G2 E | G2 z |!f! (e3 | %89
w: ces!|Loud|* cries _ fe- *|ro- *|cious|As|_ if * dea th|claimed hs|child|E-|
 e)d/>c/B/>A/ | (B2 c) | B2 z | (G3 | G)F/>E/^D/>E/ | F3 | (B,3 | !>!B3) | !>!B2 B | %98
w: * cho * re- *|peats the|wail,|As|* she * ad *|van-|ces;|As|flames of|
 TB^A/>B/d/>c/ | B3 | TA^G/>A/c/>B/ | A2 A | TGF/>G/A/>G/ | F2 z | B3 | !>!e2 e | !>!e2 e | %107
w: lu * * * rid|light,|Dis- * * * *|close the|dark * * * of|night,|Each|smiles with|grim de-|
 =f/>e/d/>c/B/>A/ | G/>F/E z/ E/ | F/>E/^D z/ D/ | (!trill(!TB3 | (B3) | (B3) | (B3) | %114
w: light, * * * * whilst|fi res * are|blaz ing, * are|bla-||||
 !trill)!B)!<(!^c/>^d/e/>=f/!<)! | !>!g2 f | e2 z | !fermata!z3 |] %118
w: zing, with _ _ _|fu- ry|bright.||
V:2
!pp! z .[B,EG].[B,EG] | z .[B,EG].[B,EG] | z [B,EG][B,EG] | z [B,EG][B,EG] | TB^A/>B/d/>c/ | G3 | %6
w: ||||||
 !trill(!TA^G/>A/c/>B/ | F2 z | TGF/>G/A/>G/ | F2 z | z3 | z3 | TB^A/>B/d/>c/ | G3 | %14
w: ||||||||
 TA^G/>A/c/>B/ | A2 A | TGG/>A/F/>G/ | E2 z | z [CEG][CEG] | z [CEG][CEG] | z [B,DG][B,DG] | %21
w: |||||||
 z [B,DG][B,DG] | z [C=FA][CFA] | z [C=FA][CFA] | z [CEG][CEG] | z [CEG][CEG] | z [CEA][CEA] | %27
w: ||||||
 z [CEA][CEA] | z [B,^DA][B,DA] | z [B,^DA][B,DA] | z [B,EG][B,EG] | z EE | z ^DD | z ^DD | %34
w: |||||||
!p! z [B,EG][B,EG] | z3 | TB^A/>B/d/>c/ | G3 | TA^G/>A/c/>B/ | A2 z | TGF/>G/A/>G/ | F2 z | %42
w: ||Lu- * * * rid|light|||||
 z [CEA][CEA] | z [B,E^G][B,EG] | e[CEA][CEA] | =f[C=FA][CFA] | z [B,EG][B,EG] | z [B,^DF][B,DF] | %48
w: ||||||
 [EG].[EG].[^E^G] | .[FA].[^CE].[^DF] | .[EG].[EG].[^E^G] | .[FA].[^CE].[=F^G] | .[EG] z z | %53
w: |||||
 z z [AB^df] | [GBe] z/4 c/B/^A/B/4 | g2 f | e2 B | d/>c/BA | B/>G/EB/4c/4^A/4B/4 | g2 f | e2 B | %61
w: ||||||||
 d/>c/B/>A/G/>F/ | E!fermata![egbe'] z | !fermata!z3 | z [B,EG][B,EG] | z [B,EG][B,EG] | %66
w: |||||
 TB_B/>=B/d/>c/ | !>!B3 | TA^G/>A/c/>B/ | A2 z | TGF/>G/A/>G/ | =F3 | z3 | z3 | TB^A/>B/d/>c/ | %75
w: |||||||||
 G3 | TA^G/>A/d/>c/ | A2 z | TGG/>A/F/>G/ | E2 z | z [CEG][CEG] | z [CEG][CEG] | z [B,DG][B,DG] | %83
w: ||||||||
 z [B,DG][B,DG] | z [CFA][CFA] | z [CFA][CFA] | z [CEG][CEG] | z [CEG][CEG] | z [CEA][CEA] | %89
w: ||||||
 z [CEA][CEA] | z [B,^DA][B,DA] | z [B,^DA][B,DA] | z [B,EG][B,EG] | z EE | z ^DD | z ^DD | %96
w: |||||||
 z [B,EG][B,EG] | z3 | TB_B/>=B/d/>c/ | B2 z | TB^G/>A/c/>B/ | A2 z | TGF/>G/A/>G/ | F2 z | %104
w: ||||||||
 z [B,EG][B,EG] | z [B,E^G][B,EG] | (e[CEA][CEA] | =f)[C=FA][CFA] | z [B,EG][B,EG] | %109
w: |||||
 z [B,^DF][B,DF] | [EG][EG][E^G] | [FA][^CE][^DF] | [EG][EG][E^G] | [FA][^CE][^DF] | [EG] z z | %115
w: ||||||
 z z [AB^df] | [GBe] z z | !fermata!z3 |] %118
w: |||
V:3
 E, z z | E, z z | E, z z | E, z z | .E,.[G,CE].[G,CE] | .E,.[G,CE].[G,CE] | .B,,.[B,^DF].[B,DF] | %7
 .B,,.[B,^DF].[B,DF] | .B,,.[B,^DF].[B,DF] | .B,,.[F,F].[F,DF] | .E,.[B,EG].[B,EG] | %11
 .E,.[B,EG].[B,EG] | .E,.[B,EG].[B,EG] | .E,.[B,EG].[B,EG] | .B,,.[B,^DF].[B,DF] | %15
 .B,,.[B,^DF].[B,DF] | .E,.[A,,C,E,].[B,,^D,A,] | .E,.[G,B,E].[G,B,E] | [C,,C,] z z | [C,,C,] z z | %20
 [G,,G,] z z | [G,,G,] z z | [F,,F,] z z | [=F,,=F,] z z | [C,,C,] z z | [C,,C,] z z | %26
 [A,,,A,,] z z | [A,,A,] z z | [F,,F,] z z | [F,,F,] z z | [E,,E,] z z | [C,,C,][F,^A,][F,A,] | %32
 [B,,,B,,][F,B,][F,B,] | B,,2 [F,B,] | [F,B,] z z | E,[B,EG][B,EG] | E,[B,EG][B,EG] | %37
 E,[B,EG][B,EG] | TB,,[F,B,^D][F,B,D] | B,,[B,^DF][B,DF] | E,[G,B,E][G,B,E] | B,,[F,B,^D][F,B,D] | %42
 [E,,E,] z z | [D,,D,] z z | [C,,C,] z z | [B,,,B,,] z z | [B,,,B,,] z z | [B,,,B,,] z z | %48
 [B,,,B,,] z z | [B,,,B,,] z z | [B,,,B,,] z z | [B,,,B,,] z z | [B,,,B,,]2 z | z z [B,,,B,,] | %54
 [E,,E,] z z | [B,,^D,A,] z z | [E,G,] z z | [A,,C,F,] z [B,,^D,F,] | [E,G,] z z | [B,,^D,A,] z z | %60
 [E,G,] z z | [A,,C,F,] z [B,,^D,A,] | [E,G,]!fermata![E,,G,,B,,E,] z | !fermata!z3 | E, z z | %65
 E, z z | E,[B,EG][B,EG] | E,[B,EG][B,EG] | B,,[B,^DF][B,DF] | B,,[B,^DF][B,DF] | %70
 E,[G,B,E][G,B,E] | B,,[F,B,^D][F,B,D] | E,[B,EG][B,EG] | E,[B,EG][B,EG] | E,[B,EG][B,EG] | %75
 E,[B,EG][B,EG] | B,,[B,^DF][B,DF] | B,,[B,^DF][B,DF] | TE,[A,,C,E,][B,,^D,A,] | E,[G,B,E][G,B,E] | %80
 [C,,D,] z z | [C,,D,] z z | [G,,G,] z z | [G,,G,] z z | [=F,,=F,] z z | [F,,F,] z z | %86
 [C,,C,] z z | [C,,C,] z z | [A,,,A,,] z z | [A,,A,] z z | [F,,F,] z z | [F,,F,] z z | %92
 [E,,E,] z z | z [F,^A,][F,A,] | z [F,B,][F,B,] | z [F,B,][F,B,] | E, z z | E,[B,EG][B,EG] | %98
 E,[B,EG][B,EG] | E,[B,EG][B,EG] | TB,,[B,^DF][B,DF] | B,,[B,^DF][B,DF] | E,[G,B,E][G,B,E] | %103
 B,,[B,^DF][B,DF] | [E,,E,] z z | [D,,D,] z z | [C,,C,] z z | [A,,,A,,] z z | [D,,D,] z z | %109
 [B,,,B,,]2 z | [B,,,B,,] z z | [B,,,B,,] z z | [B,,,B,,]2 z | [B,,,B,,]2 z | [B,,,B,,]2 z | %115
 z z [B,,,B,,] | [E,,E,] z z | !fermata!z3 |] %118

